;FLAVOR:Marlin
;TIME:10803
;Filament used: 8.50209m
;Layer height: 0.2
;MINX:101
;MINY:91.5
;MINZ:0.2
;MAXX:199
;MAXY:208.5
;MAXZ:6.2
;Generated with Cura_SteamEngine 4.6.0
M140 S80
M105
M190 S80
M104 S240
M105
M109 S240
M82 ;absolute extrusion mode
M201 X500.00 Y500.00 Z100.00 E5000.00 ;Setup machine max acceleration
M203 X500.00 Y500.00 Z10.00 E50.00 ;Setup machine max feedrate
M204 P500.00 R1000.00 T500.00 ;Setup Print/Retract/Travel acceleration
M205 X8.00 Y8.00 Z0.40 E5.00 ;Setup Jerk
M220 S100 ;Reset Feedrate
M221 S100 ;Reset Flowrate

G28 ;Home

G92 E0 ;Reset Extruder
G1 Z2.0 F3000 ;Move Z Axis up
G1 X10.1 Y20 Z0.28 F5000.0 ;Move to start position
G1 X10.1 Y200.0 Z0.28 F1500.0 E15 ;Draw the first line
G1 X10.4 Y200.0 Z0.28 F5000.0 ;Move to side a little
G1 X10.4 Y20 Z0.28 F1500.0 E30 ;Draw the second line
G92 E0 ;Reset Extruder
G1 Z2.0 F3000 ;Move Z Axis up

G92 E0
G92 E0
G1 F2700 E-5
;LAYER_COUNT:31
;LAYER:0
M107
G0 F6000 X186.625 Y92.311 Z0.2
;TYPE:SKIRT
G1 F2700 E0
G1 F900 X187.277 Y92.342 E0.02171
G1 X187.556 Y92.364 E0.03102
G1 X188.452 Y92.474 E0.06104
G1 X189.252 Y92.643 E0.08824
G1 X189.446 Y92.692 E0.09489
G1 X190.311 Y92.951 E0.12493
G1 X191.114 Y93.271 E0.15368
G1 X191.409 Y93.403 E0.16443
G1 X192.216 Y93.808 E0.19446
G1 X193.255 Y94.473 E0.23549
G1 X193.525 Y94.67 E0.2466
G1 X194.23 Y95.234 E0.27663
G1 X194.86 Y95.835 E0.30559
G1 X194.964 Y95.943 E0.31058
G1 X195.828 Y96.966 E0.35511
G1 X195.971 Y97.16 E0.36313
G1 X196.687 Y98.276 E0.40723
G1 X196.973 Y98.823 E0.42776
G1 X197.061 Y99.004 E0.43445
G1 X197.42 Y99.833 E0.4645
G1 X197.697 Y100.667 E0.49373
G1 X197.772 Y100.93 E0.50283
G1 X197.981 Y101.808 E0.53285
G1 X198.067 Y102.333 E0.55054
G1 X198.071 Y102.362 E0.55151
G1 X198.137 Y102.951 E0.57123
G1 X198.179 Y103.514 E0.59
G1 X198.193 Y103.955 E0.60468
G1 X198.2 Y104.587 E0.6257
G1 X198.2 Y195.276 E3.64203
G1 X198.199 Y195.42 E3.64682
G1 X198.189 Y196.13 E3.67044
G1 X198.159 Y196.784 E3.69221
G1 X198.139 Y197.039 E3.70072
G1 X198.028 Y197.935 E3.73075
G1 X197.852 Y198.767 E3.75903
G1 X197.784 Y199.033 E3.76816
G1 X197.522 Y199.897 E3.79819
G1 X197.158 Y200.792 E3.83033
G1 X197.052 Y201.021 E3.83872
G1 X196.637 Y201.823 E3.86875
G1 X196.287 Y202.389 E3.89089
G1 X195.787 Y203.092 E3.91958
G1 X195.658 Y203.258 E3.92657
G1 X194.816 Y204.211 E3.96887
G1 X194.596 Y204.427 E3.97912
G1 X193.921 Y205.027 E4.00916
G1 X193.501 Y205.351 E4.02681
G1 X193.338 Y205.47 E4.03352
G1 X192.586 Y205.97 E4.06355
G1 X192.4 Y206.082 E4.07077
G1 X191.606 Y206.513 E4.10082
G1 X190.755 Y206.881 E4.13166
G1 X190.552 Y206.958 E4.13888
G1 X189.695 Y207.241 E4.1689
G1 X189.075 Y207.394 E4.19014
G1 X188.842 Y207.444 E4.19807
G1 X187.665 Y207.625 E4.23767
G1 X187.454 Y207.645 E4.24472
G1 X186.766 Y207.688 E4.26765
G1 X185.913 Y207.7 E4.29602
G1 X114.202 Y207.7 E6.68114
G1 X114.054 Y207.699 E6.68606
G1 X113.367 Y207.689 E6.70892
G1 X112.684 Y207.656 E6.73166
G1 X112.415 Y207.634 E6.74064
G1 X111.519 Y207.521 E6.77067
G1 X110.671 Y207.338 E6.79953
G1 X110.418 Y207.272 E6.80822
G1 X109.555 Y207.005 E6.83827
G1 X108.65 Y206.631 E6.87084
G1 X108.412 Y206.519 E6.87959
G1 X107.613 Y206.099 E6.90961
G1 X107.068 Y205.758 E6.93099
G1 X106.373 Y205.26 E6.95943
G1 X106.207 Y205.13 E6.96644
G1 X105.521 Y204.542 E6.99649
G1 X105.077 Y204.101 E7.01731
G1 X104.477 Y203.426 E7.04735
G1 X104.149 Y203.001 E7.0652
G1 X104.03 Y202.838 E7.07191
G1 X103.509 Y202.051 E7.10331
G1 X103.398 Y201.865 E7.11051
G1 X102.97 Y201.07 E7.14054
G1 X102.537 Y200.029 E7.17804
G1 X102.439 Y199.751 E7.18784
G1 X102.152 Y198.788 E7.22127
G1 X102.127 Y198.686 E7.22476
G1 X101.951 Y197.8 E7.2548
G1 X101.883 Y197.255 E7.27307
G1 X101.861 Y197.031 E7.28056
G1 X101.816 Y196.352 E7.30319
G1 X101.807 Y196.025 E7.31407
G1 X101.8 Y195.414 E7.33439
G1 X101.8 Y104.673 E10.35245
G1 X101.801 Y104.515 E10.35771
G1 X101.811 Y103.868 E10.37923
G1 X101.838 Y103.266 E10.39927
G1 X101.856 Y103.025 E10.40731
G1 X101.963 Y102.129 E10.43732
G1 X102.133 Y101.311 E10.46511
G1 X102.187 Y101.095 E10.47251
G1 X102.589 Y99.838 E10.51641
G1 X102.701 Y99.553 E10.52659
G1 X103.068 Y98.728 E10.55663
G1 X103.507 Y97.939 E10.58666
G1 X103.938 Y97.295 E10.61243
G1 X104.152 Y97 E10.62455
G1 X104.714 Y96.293 E10.65459
G1 X105.33 Y95.644 E10.68435
G1 X105.44 Y95.538 E10.68943
G1 X106.461 Y94.676 E10.73388
G1 X106.671 Y94.521 E10.74256
G1 X107.42 Y94.018 E10.77256
G1 X108.243 Y93.567 E10.80378
G1 X108.482 Y93.45 E10.81263
G1 X109.31 Y93.089 E10.84267
G1 X110.18 Y92.799 E10.87317
G1 X110.444 Y92.724 E10.8823
G1 X111.322 Y92.516 E10.91231
G1 X112.183 Y92.39 E10.94125
G1 X112.425 Y92.365 E10.94935
G1 X113.173 Y92.315 E10.97428
G1 X113.47 Y92.307 E10.98416
G1 X114.088 Y92.3 E11.00472
G1 X185.794 Y92.3 E13.38967
G1 X185.944 Y92.301 E13.39466
G1 X186.625 Y92.311 E13.41731
G0 F6000 X186.631 Y91.911
G1 F900 X187.308 Y91.943 E13.43985
G1 X187.587 Y91.965 E13.44916
G1 X188.501 Y92.077 E13.47979
G1 X189.35 Y92.255 E13.50864
G1 X189.544 Y92.304 E13.5153
G1 X190.426 Y92.568 E13.54592
G1 X191.277 Y92.905 E13.57636
G1 X191.572 Y93.037 E13.58711
G1 X192.396 Y93.45 E13.61777
G1 X193.491 Y94.15 E13.66099
G1 X193.761 Y94.347 E13.67211
G1 X194.48 Y94.921 E13.70271
G1 X195.148 Y95.557 E13.73339
G1 X195.252 Y95.665 E13.73837
G1 X195.862 Y96.356 E13.76903
G1 X196.292 Y96.923 E13.7927
G1 X196.995 Y98.009 E13.83572
G1 X197.035 Y98.08 E13.83844
G1 X197.333 Y98.648 E13.85977
G1 X197.421 Y98.829 E13.86646
G1 X197.787 Y99.674 E13.89709
G1 X198.082 Y100.557 E13.92806
G1 X198.157 Y100.82 E13.93715
G1 X198.37 Y101.716 E13.96778
G1 X198.464 Y102.279 E13.98677
G1 X198.468 Y102.308 E13.98774
G1 X198.535 Y102.911 E14.00792
G1 X198.578 Y103.492 E14.0273
G1 X198.593 Y103.951 E14.04257
G1 X198.6 Y104.587 E14.06373
G1 X198.6 Y195.276 E17.08006
G1 X198.599 Y195.425 E17.08501
G1 X198.589 Y196.135 E17.10863
G1 X198.558 Y196.815 E17.13127
G1 X198.538 Y197.07 E17.13978
G1 X198.426 Y197.984 E17.1704
G1 X198.24 Y198.866 E17.20038
G1 X198.172 Y199.132 E17.20952
G1 X197.905 Y200.014 E17.24017
G1 X197.521 Y200.96 E17.27412
G1 X197.415 Y201.189 E17.28252
G1 X196.993 Y202.007 E17.31313
G1 X196.623 Y202.607 E17.33658
G1 X196.103 Y203.337 E17.36639
G1 X195.974 Y203.503 E17.37338
G1 X195.099 Y204.494 E17.41735
G1 X194.875 Y204.714 E17.42779
G1 X194.188 Y205.327 E17.45841
G1 X193.737 Y205.674 E17.47734
G1 X193.574 Y205.793 E17.48405
G1 X192.792 Y206.313 E17.51529
G1 X192.606 Y206.425 E17.52251
G1 X191.797 Y206.865 E17.55314
G1 X190.897 Y207.255 E17.58576
G1 X190.694 Y207.332 E17.59298
G1 X189.82 Y207.621 E17.6236
G1 X189.159 Y207.785 E17.64625
G1 X188.926 Y207.835 E17.65418
G1 X187.702 Y208.024 E17.69537
G1 X187.491 Y208.044 E17.70242
G1 X186.78 Y208.087 E17.72611
G1 X186.535 Y208.093 E17.73426
G1 X185.913 Y208.1 E17.75495
G1 X114.202 Y208.1 E20.14007
G1 X114.048 Y208.099 E20.14519
G1 X113.361 Y208.089 E20.16804
G1 X112.651 Y208.055 E20.19169
G1 X112.382 Y208.033 E20.20066
G1 X111.469 Y207.918 E20.23127
G1 X110.57 Y207.725 E20.26185
G1 X110.317 Y207.659 E20.27055
G1 X109.437 Y207.388 E20.30117
G1 X108.48 Y206.993 E20.33561
G1 X108.242 Y206.881 E20.34436
G1 X107.426 Y206.453 E20.375
G1 X106.848 Y206.092 E20.39767
G1 X106.126 Y205.574 E20.42722
G1 X105.96 Y205.444 E20.43424
G1 X105.261 Y204.846 E20.46483
G1 X104.791 Y204.38 E20.48685
G1 X104.178 Y203.693 E20.51747
G1 X103.826 Y203.237 E20.53663
G1 X103.707 Y203.074 E20.54334
G1 X103.166 Y202.256 E20.57596
G1 X103.055 Y202.07 E20.58317
G1 X102.618 Y201.26 E20.61378
G1 X102.16 Y200.162 E20.65335
G1 X102.062 Y199.884 E20.66315
G1 X101.764 Y198.883 E20.69789
G1 X101.739 Y198.781 E20.70138
G1 X101.559 Y197.878 E20.73201
G1 X101.485 Y197.294 E20.75158
G1 X101.463 Y197.07 E20.75907
G1 X101.416 Y196.37 E20.7824
G1 X101.407 Y196.03 E20.79372
G1 X101.4 Y195.414 E20.81421
G1 X101.4 Y104.673 E23.83226
G1 X101.401 Y104.509 E23.83772
G1 X101.411 Y103.862 E23.85924
G1 X101.439 Y103.236 E23.88008
G1 X101.457 Y102.995 E23.88812
G1 X101.566 Y102.081 E23.91874
G1 X101.744 Y101.214 E23.94817
G1 X101.798 Y100.998 E23.95558
G1 X102.216 Y99.692 E24.00119
G1 X102.328 Y99.407 E24.01137
G1 X102.702 Y98.566 E24.04199
G1 X103.147 Y97.76 E24.07261
G1 X103.614 Y97.06 E24.1006
G1 X103.828 Y96.765 E24.11272
G1 X104.4 Y96.044 E24.14333
G1 X105.053 Y95.356 E24.17488
G1 X105.163 Y95.25 E24.17996
G1 X105.853 Y94.641 E24.21057
G1 X106.223 Y94.355 E24.22612
G1 X106.433 Y94.2 E24.2348
G1 X107.197 Y93.685 E24.26545
G1 X108.067 Y93.208 E24.29845
G1 X108.306 Y93.091 E24.3073
G1 X109.15 Y92.722 E24.33794
G1 X110.07 Y92.414 E24.3702
G1 X110.334 Y92.339 E24.37933
G1 X111.23 Y92.127 E24.40996
G1 X112.142 Y91.992 E24.44062
G1 X112.384 Y91.967 E24.44871
G1 X113.156 Y91.915 E24.47445
G1 X113.465 Y91.907 E24.48473
G1 X114.088 Y91.9 E24.50545
G1 X185.794 Y91.9 E26.8904
G1 X185.95 Y91.901 E26.89559
G1 X186.631 Y91.911 E26.91824
G0 F6000 X186.637 Y91.511
G1 F900 X187.34 Y91.544 E26.94165
G1 X187.619 Y91.566 E26.95096
G1 X188.55 Y91.68 E26.98215
G1 X189.448 Y91.867 E27.01266
G1 X189.642 Y91.916 E27.01932
G1 X190.54 Y92.184 E27.05049
G1 X191.441 Y92.54 E27.08271
G1 X191.736 Y92.672 E27.09346
G1 X192.575 Y93.092 E27.12467
G1 X193.727 Y93.827 E27.17012
G1 X193.997 Y94.024 E27.18123
G1 X194.73 Y94.608 E27.2124
G1 X195.437 Y95.28 E27.24485
G1 X195.541 Y95.388 E27.24983
G1 X196.162 Y96.091 E27.28103
G1 X196.471 Y96.491 E27.29784
G1 X196.614 Y96.685 E27.30586
G1 X197.384 Y97.884 E27.35325
G1 X197.693 Y98.473 E27.37537
G1 X197.781 Y98.654 E27.38207
G1 X198.155 Y99.514 E27.41326
G1 X198.466 Y100.447 E27.44597
G1 X198.541 Y100.71 E27.45507
G1 X198.76 Y101.622 E27.48626
G1 X198.86 Y102.224 E27.50656
G1 X198.864 Y102.253 E27.50753
G1 X198.933 Y102.871 E27.52821
G1 X198.977 Y103.47 E27.54819
G1 X198.993 Y103.946 E27.56403
G1 X199 Y104.587 E27.58535
G1 X199 Y195.276 E30.60168
G1 X198.999 Y195.431 E30.60684
G1 X198.989 Y196.141 E30.63045
G1 X198.956 Y196.846 E30.65393
G1 X198.936 Y197.101 E30.66244
G1 X198.823 Y198.032 E30.69363
G1 X198.627 Y198.965 E30.72534
G1 X198.559 Y199.231 E30.73447
G1 X198.288 Y200.129 E30.76567
G1 X197.884 Y201.128 E30.80151
G1 X197.778 Y201.357 E30.8099
G1 X197.349 Y202.19 E30.84106
G1 X196.958 Y202.825 E30.86587
G1 X196.419 Y203.583 E30.8968
G1 X196.29 Y203.749 E30.9038
G1 X195.382 Y204.777 E30.94941
G1 X195.154 Y205.001 E30.96005
G1 X194.454 Y205.625 E30.99123
G1 X193.973 Y205.997 E31.01146
G1 X193.81 Y206.116 E31.01817
G1 X192.998 Y206.655 E31.05059
G1 X192.812 Y206.767 E31.05781
G1 X191.989 Y207.217 E31.08901
G1 X191.039 Y207.629 E31.12345
G1 X190.836 Y207.706 E31.13067
G1 X189.946 Y208.001 E31.16185
G1 X189.243 Y208.176 E31.18595
G1 X189.01 Y208.226 E31.19387
G1 X187.74 Y208.422 E31.23662
G1 X187.529 Y208.442 E31.24366
G1 X186.794 Y208.487 E31.26816
G1 X186.54 Y208.493 E31.27661
G1 X185.913 Y208.5 E31.29746
G1 X114.202 Y208.5 E33.68258
G1 X114.042 Y208.499 E33.6879
G1 X113.355 Y208.489 E33.71075
G1 X112.618 Y208.453 E33.7353
G1 X112.349 Y208.431 E33.74427
G1 X111.419 Y208.315 E33.77544
G1 X110.469 Y208.112 E33.80775
G1 X110.216 Y208.046 E33.81645
G1 X109.32 Y207.771 E33.84762
G1 X108.309 Y207.355 E33.88399
G1 X108.071 Y207.243 E33.89273
G1 X107.24 Y206.808 E33.92393
G1 X106.629 Y206.427 E33.94788
G1 X105.88 Y205.889 E33.97855
G1 X105.714 Y205.759 E33.98557
G1 X105.001 Y205.15 E34.01675
G1 X104.504 Y204.659 E34.03999
G1 X103.879 Y203.959 E34.0712
G1 X103.503 Y203.473 E34.09164
G1 X103.384 Y203.31 E34.09835
G1 X102.822 Y202.461 E34.13222
G1 X102.711 Y202.275 E34.13942
G1 X102.265 Y201.45 E34.17061
G1 X101.783 Y200.295 E34.21224
G1 X101.685 Y200.017 E34.22204
G1 X101.375 Y198.979 E34.25807
G1 X101.35 Y198.877 E34.26157
G1 X101.166 Y197.957 E34.29277
G1 X101.087 Y197.333 E34.31369
G1 X101.065 Y197.109 E34.32118
G1 X101.017 Y196.387 E34.34524
G1 X101.007 Y196.035 E34.35696
G1 X101 Y195.414 E34.37761
G1 X101 Y104.673 E37.39567
G1 X101.001 Y104.503 E37.40133
G1 X101.011 Y103.856 E37.42285
G1 X101.041 Y103.207 E37.44446
G1 X101.059 Y102.966 E37.45249
G1 X101.168 Y102.034 E37.4837
G1 X101.356 Y101.117 E37.51484
G1 X101.41 Y100.901 E37.52224
G1 X101.676 Y100.002 E37.55343
G1 X101.844 Y99.546 E37.56959
G1 X101.956 Y99.261 E37.57977
G1 X102.336 Y98.403 E37.61098
G1 X102.788 Y97.581 E37.64218
G1 X103.29 Y96.825 E37.67237
G1 X103.504 Y96.53 E37.68449
G1 X104.087 Y95.795 E37.71569
G1 X104.775 Y95.068 E37.74898
G1 X104.885 Y94.962 E37.75406
G1 X105.588 Y94.341 E37.78526
G1 X105.986 Y94.033 E37.802
G1 X106.196 Y93.878 E37.81068
G1 X106.973 Y93.353 E37.84187
G1 X107.891 Y92.848 E37.87672
G1 X108.13 Y92.731 E37.88557
G1 X108.99 Y92.355 E37.91679
G1 X109.961 Y92.03 E37.95084
G1 X110.225 Y91.955 E37.95997
G1 X111.137 Y91.737 E37.99116
G1 X112.101 Y91.594 E38.02357
G1 X112.343 Y91.569 E38.03167
G1 X113.14 Y91.515 E38.05823
G1 X113.46 Y91.507 E38.06888
G1 X114.088 Y91.5 E38.08977
G1 X185.794 Y91.5 E40.47472
G1 X185.956 Y91.501 E40.48011
G1 X186.637 Y91.511 E40.50276
G1 F2700 E35.50276
;MESH:sensorHead_Plate.STL
G0 F6000 X123.899 Y186.596
G0 X126.031 Y185.843
G0 X124.943 Y188.775
G0 X124.787 Y189.108
G0 X123.145 Y191.87
;TYPE:WALL-INNER
G1 F2700 E40.50276
G1 F900 X123.772 Y191.577 E40.52578
G1 X123.887 Y191.499 E40.5304
G1 X124.449 Y191.106 E40.55321
G1 X125.03 Y190.525 E40.58054
G1 X125.503 Y189.846 E40.60806
G1 X125.851 Y189.098 E40.6355
G1 X125.905 Y188.889 E40.64268
G1 X125.904 Y188.889
G1 X126.048 Y188.349 E40.66127
G1 X126.058 Y188.315 E40.66245
G1 X126.132 Y187.503 E40.68957
G1 X126.061 Y186.703 E40.71628
G1 X126.029 Y186.567 E40.72093
G1 X125.85 Y185.907 E40.74367
G1 X125.795 Y185.78 E40.74828
G1 X125.5 Y185.146 E40.77153
G1 X125.031 Y184.476 E40.79873
G1 X124.45 Y183.895 E40.82606
G1 X123.771 Y183.422 E40.85359
G1 X123.024 Y183.074 E40.881
G1 X122.702 Y182.989 E40.89207
G1 X122.607 Y182.894 E40.89654
G1 X121.404 Y182.797 E40.93668
G1 X120.606 Y182.867 E40.96333
G1 X119.781 Y183.093 E40.99178
G1 X119.079 Y183.423 E41.01758
G1 X118.965 Y183.5 E41.02215
G1 X118.401 Y183.894 E41.04503
G1 X117.82 Y184.475 E41.07236
G1 X117.347 Y185.154 E41.09989
G1 X116.999 Y185.902 E41.12733
G1 X116.945 Y186.111 E41.1345
G1 X116.946 Y186.111
G1 X116.802 Y186.651 E41.15309
G1 X116.792 Y186.685 E41.15427
G1 X116.718 Y187.497 E41.18139
G1 X116.789 Y188.297 E41.2081
G1 X116.821 Y188.433 E41.21275
G1 X117 Y189.093 E41.23549
G1 X117.055 Y189.22 E41.2401
G1 X117.348 Y189.847 E41.26312
G1 X117.426 Y189.962 E41.26774
G1 X117.819 Y190.524 E41.29055
G1 X118.4 Y191.105 E41.31788
G1 X119.079 Y191.578 E41.3454
G1 X119.827 Y191.926 E41.37284
G1 X120.036 Y191.98 E41.38002
G1 X120.036 Y191.979
G1 X120.576 Y192.123 E41.39861
G1 X120.61 Y192.133 E41.39978
G1 X121.422 Y192.207 E41.4269
G1 X122.222 Y192.136 E41.45362
G1 X122.358 Y192.104 E41.45826
G1 X123.018 Y191.925 E41.48101
G1 X123.145 Y191.87 E41.48561
G0 F6000 X122.982 Y191.505
G1 F900 X123.573 Y191.229 E41.50731
G1 X123.659 Y191.17 E41.51077
G1 X124.191 Y190.798 E41.53237
G1 X124.722 Y190.267 E41.55734
G1 X125.155 Y189.646 E41.58252
G1 X125.473 Y188.963 E41.60758
G1 X125.517 Y188.79 E41.61352
G1 X125.663 Y188.245 E41.63228
G1 X125.73 Y187.503 E41.65706
G1 X125.665 Y186.767 E41.68164
G1 X125.641 Y186.665 E41.68512
G1 X125.471 Y186.039 E41.7067
G1 X125.43 Y185.943 E41.71017
G1 X125.152 Y185.347 E41.73204
G1 X124.723 Y184.734 E41.75693
G1 X124.192 Y184.203 E41.78191
G1 X123.571 Y183.77 E41.80709
G1 X122.888 Y183.452 E41.83214
G1 X122.496 Y183.349 E41.84562
G1 X122.428 Y183.281 E41.84882
G1 X121.405 Y183.198 E41.88296
G1 X120.677 Y183.262 E41.90727
G1 X119.92 Y183.47 E41.93338
G1 X119.277 Y183.772 E41.957
G1 X119.191 Y183.83 E41.96045
G1 X118.659 Y184.202 E41.98205
G1 X118.128 Y184.733 E42.00702
G1 X117.695 Y185.354 E42.0322
G1 X117.377 Y186.037 E42.05726
G1 X117.333 Y186.21 E42.0632
G1 X117.187 Y186.755 E42.08196
G1 X117.12 Y187.497 E42.10674
G1 X117.185 Y188.233 E42.13132
G1 X117.209 Y188.335 E42.1348
G1 X117.379 Y188.961 E42.15638
G1 X117.42 Y189.057 E42.15985
G1 X117.696 Y189.648 E42.18154
G1 X117.755 Y189.734 E42.18501
G1 X118.127 Y190.266 E42.2066
G1 X118.658 Y190.797 E42.23158
G1 X119.279 Y191.23 E42.25676
G1 X119.962 Y191.548 E42.28182
G1 X120.135 Y191.592 E42.28776
G1 X120.68 Y191.738 E42.30652
